X:551
T:Reel 551
M:4/4
K:Gmaj
L:1/8
ag|fdde fgag|fdcA AGGc|fdde fgag|fdcA AGG2|fgag fdde|fdcA AGG2|fgab c'bag|fdcA AGG2|agab c'2d'c'|ad'd'c' agg2|agd'c' d'c'd'd'|d'c'ad' aggg|ad'd'c' d'c'd'b|ad'c'a gedg|g2af gbag|fdcA AGG2|
